svg/u1f30b.svg

<svg viewBox="0 0 128 128" xmlns="http://www.w3.org/2000/svg">
  <radialGradient id="SVGID_1_" cx="66.6662" cy="64.7767" gradientUnits="userSpaceOnUse" r="52.9077">
    <stop offset="0.1743" stop-color="#E79F68"/>
    <stop offset="0.2776" stop-color="#E6A272"/>
    <stop offset="0.4528" stop-color="#E3AB8D"/>
    <stop offset="0.5312" stop-color="#E2AF9B"/>
    <stop offset="0.7833" stop-color="#E1D1CC"/>
    <stop offset="0.8828" stop-color="#E0E0E0"/>
  </radialGradient>
  <path d="M74.13,63.5c0,0-0.27-11.46,5.46-18.28c5.73-6.82,13.1-12.01,17.74-15.28 c4.64-3.27,11.19-7.37,10.37-13.23c-0.82-5.87-5.4-9.76-25.32-9.76s-33.62,1.85-46.31,8.53s-7.31,15.32-1.91,16.78 c4.77,1.29,10.84,1.81,15.65,6.94c8.73,9.3,7.81,23.62,7.81,23.62L74.13,63.5z" fill="url(#SVGID_1_)"/>
  <path d="M41.38,68.14c0,0-15.55,21.56-19.65,26.88S9.18,109.07,9.73,110.16c0.55,1.09,6.96,3.68,6.96,3.68 s32.47,4.64,35.06,4.64s55.8-15.14,55.8-15.14s-18.69-39.98-24.7-37.66S41.38,68.14,41.38,68.14z" fill="#717578"/>
  <path d="M66.76,80.96c0,0-4.64,4.09-6.82,6.28s-8.29,7.1-7.5,7.91c0.65,0.67,9.87-3.52,10.83-4 c0.82-0.41,11-4.19,11.68-3.23c0.68,0.96-2.28,3.23-3.27,4.64c-0.92,1.31-17.17,17.68-21.01,18.69c-2.76,0.73-19.51,1.64-20.06,0.27 c-0.55-1.36,6-10.64,4.37-12.01c-1.64-1.36-8.33,3.03-12.28,5.35s-10.09,5.29-11.05,5.43s-1.91-0.14-1.91-0.14s-0.29,1.71,8.19,5.59 c6.68,3.06,12.14,5.87,30.43,7.64s31.38,0.14,39.02-0.96c7.64-1.09,21.69-5.46,25.38-7.09c3.68-1.64,6.53-3.33,6.14-4.5 c-0.14-0.41-21.42-28.65-21.42-28.65L86,65.14L66.76,80.96z" fill="#474B4E"/>
  <radialGradient id="SVGID_2_" cx="65.3841" cy="44.7946" gradientTransform="matrix(1.028679e-13 1 -1.4561 1.497817e-13 130.6076 -20.5895)" gradientUnits="userSpaceOnUse" r="50.161">
    <stop offset="0.3896" stop-color="#CB2D30"/>
    <stop offset="0.4916" stop-color="#D23730"/>
    <stop offset="0.6646" stop-color="#E45231"/>
    <stop offset="0.7153" stop-color="#EA5B31"/>
    <stop offset="0.7921" stop-color="#EA6032"/>
    <stop offset="0.887" stop-color="#EC6F36"/>
    <stop offset="0.9672" stop-color="#ED823A"/>
  </radialGradient>
  <path d="M53.35,53.06c-4.25,0.63-5.76,5.45-10.18,11.07c-2.55,3.24-4.73,5.44-5.94,6.92 c-1.36,1.67-3.16,5.11-1.36,6.08c1.8,0.97,4.58-1.93,5.34-3.53c0.75-1.59,1.87-3.22,2.92-2.1c1.05,1.12,1.12,3.07-1.57,5.32 c-2.7,2.25-5.85,4.87-5.55,7.2s1.87,3,3.67,2.47c1.8-0.52,6.15-5.55,7.8-8.02c1.65-2.47,4.27-6.75,6.07-6.75s1.77,3.75-1.8,7.95 c-4.12,4.85-6.13,6.53-11.02,10.95c-5.08,4.58-4.42,6.22-3.52,7.12c0.9,0.9,3.45,1.12,7.12-2.02c3.67-3.15,8.85-9.07,11.1-11.7 c2.25-2.62,4.27-5.47,6.6-5.32s1.72,2.47,2.02,3.6c0.3,1.12,0.3,3.22,3.07,3.22s4.27-2.85,5.17-5.1s0.82-5.25,2.62-5.55 c1.8-0.3,2.02,1.5,3.45,4.35c1.42,2.85,6.9,14.69,8.25,16.79c1.35,2.1,2.85,6.07,7.27,4.72c4.42-1.35-1.27-9.52-2.62-11.55 c-1.35-2.02-5.25-8.85-6.75-13.42c-1.5-4.57-1.5-6-0.52-6.75c0.97-0.75,2.62,1.35,4.8,5.4c2.17,4.05,4.05,7.8,5.77,9.3 c1.72,1.5,3.22,1.35,3.97,0.67c0.75-0.67,1.05-3.22-0.9-5.17c-1.95-1.95-4.16-4.65-6.25-7.71c-2.31-3.39-5.59-8.87-7.39-12.02 s-2.83-5.31-5.28-5.69c-3.17-0.49-5.45,1.88-7.25,3.15c-1.8,1.27-4.27,1.95-6.75,1.8c-2.47-0.15-5.77-2.85-7.12-4.05 C57.25,53.51,55.9,52.69,53.35,53.06z" fill="url(#SVGID_2_)"/>
  <path d="M55.56,57.12c0,0,1.7,0.36,2.94,1.29c1.24,0.93,4.29,3.42,8.26,3.36c3.97-0.05,6.18-1.96,7.78-2.89 c1.6-0.93,3.09-0.77,3.09-0.77s-2.69,10.49-10.68,10.8C56.5,69.32,55.56,57.12,55.56,57.12z" fill="#EC5F32"/>
  <radialGradient id="SVGID_3_" cx="103.0043" cy="55.494" gradientUnits="userSpaceOnUse" r="12.247">
    <stop offset="0.0448" stop-color="#CB2D30"/>
    <stop offset="0.3439" stop-color="#D23730"/>
    <stop offset="0.8512" stop-color="#E45231"/>
    <stop offset="1" stop-color="#EA5B31"/>
  </radialGradient>
  <path d="M105.24,58.54c-1.46,0.21-0.7,2.3-0.49,7.24s0.16,7.02,2.51,7.03 c2.94,0.01,2.02-6.2,1.46-8.08C108.17,62.85,107,58.29,105.24,58.54z" fill="url(#SVGID_3_)"/>
  <radialGradient id="SVGID_4_" cx="101.3904" cy="32.4751" gradientUnits="userSpaceOnUse" r="15.7263">
    <stop offset="0.2939" stop-color="#CB2D30"/>
    <stop offset="0.5149" stop-color="#D23730"/>
    <stop offset="0.89" stop-color="#E45231"/>
    <stop offset="1" stop-color="#EA5B31"/>
  </radialGradient>
  <path d="M104.89,34.45c-0.64,1.28,1.39,2.72,3.27,4.94c1.27,1.51,3.13,5.22,5.71,5.5 c2.58,0.28,2.88-2.82,1.6-4.6c-1.25-1.74-3.41-3.48-5.85-4.73C107.19,34.31,105.38,33.47,104.89,34.45z" fill="url(#SVGID_4_)"/>
  <radialGradient id="SVGID_5_" cx="71.1077" cy="28.0336" gradientUnits="userSpaceOnUse" r="23.6989">
    <stop offset="0.0448" stop-color="#CB2D30"/>
    <stop offset="0.3439" stop-color="#D23730"/>
    <stop offset="0.8512" stop-color="#E45231"/>
    <stop offset="1" stop-color="#EA5B31"/>
  </radialGradient>
  <path d="M71.96,22.05c0.77,0.35,1.53-0.14,1.81-1.18c0.18-0.69,3.26-5.69,7.8-8.77 c3.69-2.51,5.43-2.51,7.31-3.27c1.14-0.47,2.16-2.23,1.6-3.55c-0.53-1.26-1.67-1.74-3.55-1.46c-1.19,0.18-5.53,1.29-9.82,5.92 c-5.29,5.71-5.57,9.68-5.71,10.37C71.26,20.8,71.22,21.71,71.96,22.05z" fill="url(#SVGID_5_)"/>
  <radialGradient id="SVGID_6_" cx="65.8587" cy="27.2261" gradientUnits="userSpaceOnUse" r="19.0586">
    <stop offset="0.4232" stop-color="#CB2D30"/>
    <stop offset="0.6038" stop-color="#D23730"/>
    <stop offset="0.9102" stop-color="#E45231"/>
    <stop offset="1" stop-color="#EA5B31"/>
  </radialGradient>
  <path d="M61.79,22.68c-1.43,0.38-2.65-1.67-5.22-4.32c-2.58-2.65-4.87-2.99-6.13-4.6 s-1.04-3.41,0.07-4.39c1.11-0.97,3.06-1.11,4.8,0.21c1.74,1.32,3.97,3.83,5.57,7.31C61.75,18.77,63.12,22.33,61.79,22.68z" fill="url(#SVGID_6_)"/>
  <radialGradient id="SVGID_7_" cx="31.9421" cy="30.0525" gradientUnits="userSpaceOnUse" r="16.5595">
    <stop offset="0.3406" stop-color="#CB2D30"/>
    <stop offset="0.547" stop-color="#D23730"/>
    <stop offset="0.8973" stop-color="#E45231"/>
    <stop offset="1" stop-color="#EA5B31"/>
  </radialGradient>
  <path d="M27.98,33.3c-1.01-0.95-5.03,0.73-8.11,3.32c-1.47,1.23-2.95,2.69-3.56,4.22 c-0.51,1.3-0.49,2.95,0.71,3.75c1.08,0.72,2.4,0.38,3.32-0.33c1.27-0.99,2.15-2.98,2.89-4.08c1.3-1.92,3.46-3.75,4.17-4.36 C28.05,35.25,28.74,34.01,27.98,33.3z" fill="url(#SVGID_7_)"/>
  <radialGradient id="SVGID_8_" cx="31.5383" cy="53.0673" gradientUnits="userSpaceOnUse" r="19.0843">
    <stop offset="0.4833" stop-color="#CB2D30"/>
    <stop offset="0.6451" stop-color="#D23730"/>
    <stop offset="0.9195" stop-color="#E45231"/>
    <stop offset="1" stop-color="#EA5B31"/>
  </radialGradient>
  <path d="M31.31,59.59c-1.16-0.36-2.9,0.91-4.36,6.49c-1.29,4.94-1.69,9.39,1.56,9.47 c3.42,0.09,2-4.89,2.4-9.38S32.47,59.94,31.31,59.59z" fill="url(#SVGID_8_)"/>
  <radialGradient id="SVGID_9_" cx="43.0216" cy="45.9733" gradientUnits="userSpaceOnUse" r="11.2088">
    <stop offset="0.0448" stop-color="#CB2D30"/>
    <stop offset="0.3439" stop-color="#D23730"/>
    <stop offset="0.8512" stop-color="#E45231"/>
    <stop offset="1" stop-color="#EA5B31"/>
  </radialGradient>
  <path d="M31,53.11c1.91,0.38,2.91-1.07,3.3-2.4c0.31-1.06,1.62-6.58,8.44-7.2 c6.6-0.6,11.32,6.04,12,6.77c0.69,0.73,1.59,0.86,2.1,0.34c0.45-0.45,0.36-1.28-0.09-2.4c-0.47-1.2-5.92-10.57-15.6-9.34 c-9.17,1.16-12.34,8.23-12.26,10.93C28.96,51.7,29.5,52.81,31,53.11z" fill="url(#SVGID_9_)"/>
  <radialGradient id="SVGID_10_" cx="89.7518" cy="44.0691" gradientUnits="userSpaceOnUse" r="12.5513">
    <stop offset="0.0448" stop-color="#CB2D30"/>
    <stop offset="0.3439" stop-color="#D23730"/>
    <stop offset="0.8512" stop-color="#E45231"/>
    <stop offset="1" stop-color="#EA5B31"/>
  </radialGradient>
  <path d="M74.48,51.9c1.24,0.41,1.82-0.97,2.27-1.62c0.45-0.65,2.84-5.23,7.09-7.42 c4.26-2.19,7.46-2.43,11.47-0.61c2.13,0.97,3.63,3.59,4.54,5.19c1.22,2.15,2.92,2.72,4.54,1.82c1.62-0.89,1.86-3.57-0.53-6.77 c-1.93-2.59-6.25-7.01-13.91-6.24c-12.2,1.22-15.49,11.91-15.81,12.93C73.79,50.36,73.63,51.62,74.48,51.9z" fill="url(#SVGID_10_)"/>
  <radialGradient id="SVGID_11_" cx="51.323" cy="34.8977" gradientUnits="userSpaceOnUse" r="42.0871">
    <stop offset="0.3943" stop-color="#CB2D30"/>
    <stop offset="0.5839" stop-color="#D23730"/>
    <stop offset="0.9057" stop-color="#E45231"/>
    <stop offset="1" stop-color="#EA5B31"/>
  </radialGradient>
  <path d="M68.6,54.21c1.27,0.13,1.6-0.43,1.95-2.63c0.8-4.95,2.03-14.3,8.59-21.86 c5.18-5.97,11.01-5.25,13.58-3.65c2.25,1.4,2.8,2.74,3.71,3.71c0.91,0.97,2.74,2.13,4.38,0.97c1.37-0.96,1.71-3.41-0.67-6.09 s-4.81-4.87-10.78-5.36c-5.97-0.49-11.87,3.35-15.04,7.98s-5.48,11.2-6.21,15.65c-0.73,4.45-0.79,8.4-0.79,9.32 C67.32,53.16,67.56,54.1,68.6,54.21z" fill="url(#SVGID_11_)"/>
  <radialGradient id="SVGID_12_" cx="76.7605" cy="47.0108" gradientUnits="userSpaceOnUse" r="40.3002">
    <stop offset="0.4205" stop-color="#CB2D30"/>
    <stop offset="0.6019" stop-color="#D23730"/>
    <stop offset="0.9097" stop-color="#E45231"/>
    <stop offset="1" stop-color="#EA5B31"/>
  </radialGradient>
  <path d="M63.51,54.22c1.33-0.2,1.52-1.22,1.34-2.8c-0.18-1.58-1.37-10.27-3.75-17.03 c-2.37-6.76-5.96-13.06-12.97-14.37c-7-1.31-12.57,3.61-13.35,4.42c-1.22,1.27-2.49,3.39-0.97,5.1c1.52,1.71,3.98,0.38,5.56-1.33 c1.58-1.71,4.24-4.04,8.57-2.7c4.32,1.34,6.37,5.39,8.26,9.23c1.89,3.84,3.39,9.37,4.18,12.29c0.79,2.92,1.29,5.23,1.6,6.09 C62.29,53.92,62.9,54.31,63.51,54.22z" fill="url(#SVGID_12_)"/>
</svg>

<svg viewBox="0 0 128 128" xmlns="http://www.w3.org/2000/svg">
  <defs>
    <radialGradient id="SVGID_1_" cx="66.6662" cy="64.7767" gradientUnits="userSpaceOnUse" r="52.9077">
      <stop offset="0.1743" stop-color="#E79F68"/>
      <stop offset="0.2776" stop-color="#E6A272"/>
      <stop offset="0.4528" stop-color="#E3AB8D"/>
      <stop offset="0.5312" stop-color="#E2AF9B"/>
      <stop offset="0.7833" stop-color="#E1D1CC"/>
      <stop offset="0.8828" stop-color="#E0E0E0"/>
    </radialGradient>
    <radialGradient id="SVGID_2_" cx="44.7946" cy="-44.902261" gradientTransform="matrix(0 1 -1.4561 0 0 0)" gradientUnits="userSpaceOnUse" r="50.161">
      <stop offset="0.3896" stop-color="#CB2D30"/>
      <stop offset="0.4916" stop-color="#D23730"/>
      <stop offset="0.6646" stop-color="#E45231"/>
      <stop offset="0.7153" stop-color="#EA5B31"/>
      <stop offset="0.7921" stop-color="#EA6032"/>
      <stop offset="0.887" stop-color="#EC6F36"/>
      <stop offset="0.9672" stop-color="#ED823A"/>
    </radialGradient>
    <radialGradient id="SVGID_3_" cx="103.0043" cy="55.494" gradientUnits="userSpaceOnUse" r="12.247">
      <stop offset="0.0448" stop-color="#CB2D30"/>
      <stop offset="0.3439" stop-color="#D23730"/>
      <stop offset="0.8512" stop-color="#E45231"/>
      <stop offset="1" stop-color="#EA5B31"/>
    </radialGradient>
    <radialGradient id="SVGID_4_" cx="101.3904" cy="32.4751" gradientUnits="userSpaceOnUse" r="15.7263">
      <stop offset="0.2939" stop-color="#CB2D30"/>
      <stop offset="0.5149" stop-color="#D23730"/>
      <stop offset="0.89" stop-color="#E45231"/>
      <stop offset="1" stop-color="#EA5B31"/>
    </radialGradient>
    <radialGradient id="SVGID_5_" cx="71.1077" cy="28.0336" gradientUnits="userSpaceOnUse" r="23.6989">
      <stop offset="0.0448" stop-color="#CB2D30"/>
      <stop offset="0.3439" stop-color="#D23730"/>
      <stop offset="0.8512" stop-color="#E45231"/>
      <stop offset="1" stop-color="#EA5B31"/>
    </radialGradient>
    <radialGradient id="SVGID_6_" cx="65.8587" cy="27.2261" gradientUnits="userSpaceOnUse" r="19.0586">
      <stop offset="0.4232" stop-color="#CB2D30"/>
      <stop offset="0.6038" stop-color="#D23730"/>
      <stop offset="0.9102" stop-color="#E45231"/>
      <stop offset="1" stop-color="#EA5B31"/>
    </radialGradient>
    <radialGradient id="SVGID_7_" cx="31.9421" cy="30.0525" gradientUnits="userSpaceOnUse" r="16.5595">
      <stop offset="0.3406" stop-color="#CB2D30"/>
      <stop offset="0.547" stop-color="#D23730"/>
      <stop offset="0.8973" stop-color="#E45231"/>
      <stop offset="1" stop-color="#EA5B31"/>
    </radialGradient>
    <radialGradient id="SVGID_8_" cx="31.5383" cy="53.0673" gradientUnits="userSpaceOnUse" r="19.0843">
      <stop offset="0.4833" stop-color="#CB2D30"/>
      <stop offset="0.6451" stop-color="#D23730"/>
      <stop offset="0.9195" stop-color="#E45231"/>
      <stop offset="1" stop-color="#EA5B31"/>
    </radialGradient>
    <radialGradient id="SVGID_9_" cx="43.0216" cy="45.9733" gradientUnits="userSpaceOnUse" r="11.2088">
      <stop offset="0.0448" stop-color="#CB2D30"/>
      <stop offset="0.3439" stop-color="#D23730"/>
      <stop offset="0.8512" stop-color="#E45231"/>
      <stop offset="1" stop-color="#EA5B31"/>
    </radialGradient>
    <radialGradient id="SVGID_10_" cx="89.7518" cy="44.0691" gradientUnits="userSpaceOnUse" r="12.5513">
      <stop offset="0.0448" stop-color="#CB2D30"/>
      <stop offset="0.3439" stop-color="#D23730"/>
      <stop offset="0.8512" stop-color="#E45231"/>
      <stop offset="1" stop-color="#EA5B31"/>
    </radialGradient>
    <radialGradient id="SVGID_11_" cx="51.323" cy="34.8977" gradientUnits="userSpaceOnUse" r="42.0871">
      <stop offset="0.3943" stop-color="#CB2D30"/>
      <stop offset="0.5839" stop-color="#D23730"/>
      <stop offset="0.9057" stop-color="#E45231"/>
      <stop offset="1" stop-color="#EA5B31"/>
    </radialGradient>
    <radialGradient id="SVGID_12_" cx="76.7605" cy="47.0108" gradientUnits="userSpaceOnUse" r="40.3002">
      <stop offset="0.4205" stop-color="#CB2D30"/>
      <stop offset="0.6019" stop-color="#D23730"/>
      <stop offset="0.9097" stop-color="#E45231"/>
      <stop offset="1" stop-color="#EA5B31"/>
    </radialGradient>
  </defs>
  <path d="M74.13,63.5 C74.13,63.5 73.86,52.04 79.59,45.22 C85.32,38.4 92.69,33.21 97.33,29.94 C101.97,26.67 108.52,22.57 107.7,16.71 C106.88,10.84 102.3,6.95 82.38,6.95 C62.46,6.95 48.76,8.8 36.07,15.48 C23.38,22.16 28.76,30.8 34.16,32.26 C38.93,33.55 45,34.07 49.81,39.2 C58.54,48.5 57.62,62.82 57.62,62.82 L74.13,63.5 Z" fill="url(#SVGID_1_)"/>
  <path d="M41.38,68.14 C41.38,68.14 25.83,89.7 21.73,95.02 C17.63,100.34 9.18,109.07 9.73,110.16 C10.28,111.25 16.69,113.84 16.69,113.84 C16.69,113.84 49.16,118.48 51.75,118.48 C54.34,118.48 107.55,103.34 107.55,103.34 C107.55,103.34 88.86,63.36 82.85,65.68 C76.84,68 41.38,68.14 41.38,68.14 Z" fill="#717578"/>
  <path d="M66.76,80.96 C66.76,80.96 62.12,85.05 59.94,87.24 C57.76,89.43 51.65,94.34 52.44,95.15 C53.09,95.82 62.31,91.63 63.27,91.15 C64.09,90.74 74.27,86.96 74.95,87.92 C75.63,88.88 72.67,91.15 71.68,92.56 C70.76,93.87 54.51,110.24 50.67,111.25 C47.91,111.98 31.16,112.89 30.61,111.52 C30.06,110.16 36.61,100.88 34.98,99.51 C33.34,98.15 26.65,102.54 22.7,104.86 C18.75,107.18 12.61,110.15 11.65,110.29 C10.69,110.43 9.74,110.15 9.74,110.15 C9.74,110.15 9.45,111.86 17.93,115.74 C24.61,118.8 30.07,121.61 48.36,123.38 C66.65,125.15 79.74,123.52 87.38,122.42 C95.02,121.33 109.07,116.96 112.76,115.33 C116.44,113.69 119.29,112 118.9,110.83 C118.76,110.42 97.48,82.18 97.48,82.18 L86,65.14 L66.76,80.96 Z" fill="#474B4E"/>
  <path d="M53.35,53.06 C49.1,53.69 47.59,58.51 43.17,64.13 C40.62,67.37 38.44,69.57 37.23,71.05 C35.87,72.72 34.07,76.16 35.87,77.13 C37.67,78.1 40.45,75.2 41.21,73.6 C41.96,72.01 43.08,70.38 44.13,71.5 C45.18,72.62 45.25,74.57 42.56,76.82 C39.86,79.07 36.71,81.69 37.01,84.02 C37.31,86.35 38.88,87.02 40.68,86.49 C42.48,85.97 46.83,80.94 48.48,78.47 C50.13,76 52.75,71.72 54.55,71.72 C56.35,71.72 56.32,75.47 52.75,79.67 C48.63,84.52 46.62,86.2 41.73,90.62 C36.65,95.2 37.31,96.84 38.21,97.74 C39.11,98.64 41.66,98.86 45.33,95.72 C49,92.57 54.18,86.65 56.43,84.02 C58.68,81.4 60.7,78.55 63.03,78.7 C65.36,78.85 64.75,81.17 65.05,82.3 C65.35,83.42 65.35,85.52 68.12,85.52 C70.89,85.52 72.39,82.67 73.29,80.42 C74.19,78.17 74.11,75.17 75.91,74.87 C77.71,74.57 77.93,76.37 79.36,79.22 C80.78,82.07 86.26,93.91 87.61,96.01 C88.96,98.11 90.46,102.08 94.88,100.73 C99.3,99.38 93.61,91.21 92.26,89.18 C90.91,87.16 87.01,80.33 85.51,75.76 C84.01,71.19 84.01,69.76 84.99,69.01 C85.96,68.26 87.61,70.36 89.79,74.41 C91.96,78.46 93.84,82.21 95.56,83.71 C97.28,85.21 98.78,85.06 99.53,84.38 C100.28,83.71 100.58,81.16 98.63,79.21 C96.68,77.26 94.47,74.56 92.38,71.5 C90.07,68.11 86.79,62.63 84.99,59.48 C83.19,56.33 82.16,54.17 79.71,53.79 C76.54,53.3 74.26,55.67 72.46,56.94 C70.66,58.21 68.19,58.89 65.71,58.74 C63.24,58.59 59.94,55.89 58.59,54.69 C57.25,53.51 55.9,52.69 53.35,53.06 Z" fill="url(#SVGID_2_)"/>
  <path d="M55.56,57.12 C55.56,57.12 57.26,57.48 58.5,58.41 C59.74,59.34 62.79,61.83 66.76,61.77 C70.73,61.72 72.94,59.81 74.54,58.88 C76.14,57.95 77.63,58.11 77.63,58.11 C77.63,58.11 74.94,68.6 66.95,68.91 C56.5,69.32 55.56,57.12 55.56,57.12 Z" fill="#EC5F32"/>
  <path d="M105.24,58.54 C103.78,58.75 104.54,60.84 104.75,65.78 C104.96,70.72 104.91,72.8 107.26,72.81 C110.2,72.82 109.28,66.61 108.72,64.73 C108.17,62.85 107,58.29 105.24,58.54 Z" fill="url(#SVGID_3_)"/>
  <path d="M104.89,34.45 C104.25,35.73 106.28,37.17 108.16,39.39 C109.43,40.9 111.29,44.61 113.87,44.89 C116.45,45.17 116.75,42.07 115.47,40.29 C114.22,38.55 112.06,36.81 109.62,35.56 C107.19,34.31 105.38,33.47 104.89,34.45 Z" fill="url(#SVGID_4_)"/>
  <path d="M71.96,22.05 C72.73,22.4 73.49,21.91 73.77,20.87 C73.95,20.18 77.03,15.18 81.57,12.1 C85.26,9.59 87,9.59 88.88,8.83 C90.02,8.36 91.04,6.6 90.48,5.28 C89.95,4.02 88.81,3.54 86.93,3.82 C85.74,4 81.4,5.11 77.11,9.74 C71.82,15.45 71.54,19.42 71.4,20.11 C71.26,20.8 71.22,21.71 71.96,22.05 Z" fill="url(#SVGID_5_)"/>
  <path d="M61.79,22.68 C60.36,23.06 59.14,21.01 56.57,18.36 C53.99,15.71 51.7,15.37 50.44,13.76 C49.18,12.15 49.4,10.35 50.51,9.37 C51.62,8.4 53.57,8.26 55.31,9.58 C57.05,10.9 59.28,13.41 60.88,16.89 C61.75,18.77 63.12,22.33 61.79,22.68 Z" fill="url(#SVGID_6_)"/>
  <path d="M27.98,33.3 C26.97,32.35 22.95,34.03 19.87,36.62 C18.4,37.85 16.92,39.31 16.31,40.84 C15.8,42.14 15.82,43.79 17.02,44.59 C18.1,45.31 19.42,44.97 20.34,44.26 C21.61,43.27 22.49,41.28 23.23,40.18 C24.53,38.26 26.69,36.43 27.4,35.82 C28.05,35.25 28.74,34.01 27.98,33.3 Z" fill="url(#SVGID_7_)"/>
  <path d="M31.31,59.59 C30.15,59.23 28.41,60.5 26.95,66.08 C25.66,71.02 25.26,75.47 28.51,75.55 C31.93,75.64 30.51,70.66 30.91,66.17 C31.31,61.68 32.47,59.94 31.31,59.59 Z" fill="url(#SVGID_8_)"/>
  <path d="M31,53.11 C32.91,53.49 33.91,52.04 34.3,50.71 C34.61,49.65 35.92,44.13 42.74,43.51 C49.34,42.91 54.06,49.55 54.74,50.28 C55.43,51.01 56.33,51.14 56.84,50.62 C57.29,50.17 57.2,49.34 56.75,48.22 C56.28,47.02 50.83,37.65 41.15,38.88 C31.98,40.04 28.81,47.11 28.89,49.81 C28.96,51.7 29.5,52.81 31,53.11 Z" fill="url(#SVGID_9_)"/>
  <path d="M74.48,51.9 C75.72,52.31 76.3,50.93 76.75,50.28 C77.2,49.63 79.59,45.05 83.84,42.86 C88.1,40.67 91.3,40.43 95.31,42.25 C97.44,43.22 98.94,45.84 99.85,47.44 C101.07,49.59 102.77,50.16 104.39,49.26 C106.01,48.37 106.25,45.69 103.86,42.49 C101.93,39.9 97.61,35.48 89.95,36.25 C77.75,37.47 74.46,48.16 74.14,49.18 C73.79,50.36 73.63,51.62 74.48,51.9 Z" fill="url(#SVGID_10_)"/>
  <path d="M68.6,54.21 C69.87,54.34 70.2,53.78 70.55,51.58 C71.35,46.63 72.58,37.28 79.14,29.72 C84.32,23.75 90.15,24.47 92.72,26.07 C94.97,27.47 95.52,28.81 96.43,29.78 C97.34,30.75 99.17,31.91 100.81,30.75 C102.18,29.79 102.52,27.34 100.14,24.66 C97.76,21.98 95.33,19.79 89.36,19.3 C83.39,18.81 77.49,22.65 74.32,27.28 C71.15,31.91 68.84,38.48 68.11,42.93 C67.38,47.38 67.32,51.33 67.32,52.25 C67.32,53.16 67.56,54.1 68.6,54.21 Z" fill="url(#SVGID_11_)"/>
  <path d="M63.51,54.22 C64.84,54.02 65.03,53 64.85,51.42 C64.67,49.84 63.48,41.15 61.1,34.39 C58.73,27.63 55.14,21.33 48.13,20.02 C41.13,18.71 35.56,23.63 34.78,24.44 C33.56,25.71 32.29,27.83 33.81,29.54 C35.33,31.25 37.79,29.92 39.37,28.21 C40.95,26.5 43.61,24.17 47.94,25.51 C52.26,26.85 54.31,30.9 56.2,34.74 C58.09,38.58 59.59,44.11 60.38,47.03 C61.17,49.95 61.67,52.26 61.98,53.12 C62.29,53.92 62.9,54.31 63.51,54.22 Z" fill="url(#SVGID_12_)"/>
</svg>
